X: 2696
T: Banks Of Inverness, The
R: reel
M: 4/4
K: Gmajor
|:D3 E G2 GB|A2 AB AG E2|D3 E G2 GB|AGAB GA D2:|
B2 e2 B2 d2|dBAB BE E2|d2 e2 B2 d2|dBAB G2 G2|
B2 e2 B2 d2|dBAB BE E2|dege dege|dBAB G2 G2||

